X: 12
T:Blackberry Blossom
M:4/4
L:1/8
Q:120
C:American
R:Reel
K:G
|:"G"gbag "D"fagf|"C"egfe "G"dBAG|"C"DEFG "G"ABcA|"G"GABc "D"d4|!
"G"gbag"D"fagf|"C"egfe "G"dBAG|"C"DEFG "G"ABcd|"G"B2 [BG][BG] B4:|!
"Em"[EB] eBe deBe|[EB]eBe deBe|[EB]eBe deBe|"Em"fefg "G"agfe|!
"Em"[EB]eBe deBe|[EB]eBe deBe|"C"cBcd ecde|"D"d^cdf "G"
g4:|
